!!!!SEGMENT: pl-wumfc--n48031_joteyko-tadeusz--moja-krolewna-op-2-no-6-krolewna-moja.krn
!!!cenid: 19xx:122
!!!COM: Joteyko, Tadeusz
!!!COM-rismID: pe50046072
!!!CDT: 1872-1932
!!!CNT: Polish
!!!OTL: Moja królewna Op. 2 No. 6/Królewna moja
!!!PDT:
!!!AGN: Secular; Song
!!!YEC: Copyright 2022 Narodowy Instytut Fryderyka Chopina (https://polishscores.org)
!!!YEM: License CC-BY-4.0 (https://creativecommons.org/licenses/by/4.0)
!!!SMS-siglum: PL-Wumfc
!!!SMS-shelfmark: N48031
!!!SMS-variant:
!!!SMS-altvar:
!!!SMS-shelfwork: W
!!!NIFC-rismSourceID: 1001177917
!!!NIFC-rismChildID: 1001177917
!!!NIFC-islandoraID: pl-wumfc:8038
!!!URL-pdf-islandora: https://repozytorium.nifc.pl/islandora/object/pl-wumfc%3A8038/datastream/PDF/view
!!!URL-scan: https://polish.musicsources.pl/pl/lokalizacje/galeria/druki-muzyczne/12517/2 @EN{Scan on Polish Music Sources Website} @PL{Skany w portalu Dziedzictwo Muzyki Polskiej w otwartym dostępie}
!!!IIIF:
!!!ONB-nifc:
!!!OMD: Allegretto gracioso.
!!!AIN: 1 piano 1 vox
!!!key: d
**kern	**kern	**dynam	**kern	**text	**dynam
*part2	*part2	*part2	*part1	*part1	*part1
*staff3	*staff2	*	*staff1	*staff1	*
*ICklav	*ICklav	*	*ICvox	*	*
*Ipiano	*Ipiano	*	*Ivox	*	*
*I"Fortepian.	*I"Fortepian.	*	*I"Śpiew.	*	*
*clefF4	*clefG2	*	*clefG2	*	*
*k[b-]	*k[b-]	*	*k[b-]	*	*
*d:	*d:	*	*d:	*	*
*M6/8	*M6/8	*	*M6/8	*	*
=1	=1	=1	=1	=1	=1
*^	*^	*	*	*	*
4r	4.ryy	8r	4ryy	mf	2.r	.	.
.	.	(16a/LL	.	<	.	.	.
.	.	16bn/	.	.	.	.	.
8r	.	16cc#X/	8ryy	.	.	.	.
.	.	16dd/JJ)	.	[	.	.	.
*clefG2	*	*	*	*	*	*	*
(4a^/	4.B-\ 4.d	(4aa^/	4.b-X\ 4.dd	.	.	.	.
8g/)	.	8gg/)	.	.	.	.	.
*v	*v	*	*	*	*	*	*
*	*v	*v	*	*	*	*
=2	=2	=2	=2	=2	=2
[4.A/ [4.e	[4.a\ [4.cc#X [4.ee	>	4r	.	.
.	.	.	8r	.	.
8A/] 8e]	4a\] 4cc#] 4ee]	]	8r	.	.
8r	.	.	8r	.	.
8r	8r	.	8a/	Kró-	.
*clefF4	*	*	*	*	*
=3	=3	=3	=3	=3	=3
*	*^	*	*	*	*
!	!LO:TX:b:i:t=leggiero	!	!	!	!	!
8D^\ 8A 8d	8f^\ 8a 8ff	4ryy	p	4ff^\	-lew-	.
8r	8r	.	.	.	.	.
8D\ 8A 8d	8f/ 8a 8dd	8ryy	.	8dd\	-na	.
8E\ 8A 8c#X	8.cc#X/L	8g\ 8a	.	(8.cc#X\	mo-	.
8r	.	8r	.	.	.	.
.	16bn/K	.	.	16bn\)	.	.
8E\ 8A 8c#	8cc#/J	8g\ 8a	.	8cc#\	-ja	.
=4	=4	=4	=4	=4	=4	=4
*^	*	*	*	*	*	*
8e/L	4.F\ 4.A	8ee/L	4.f\ 4.a	.	8ee\	i-	.
8d/	.	8dd/	.	.	8dd\	-dzie	.
8A/J	.	8a/J	.	.	8a/	przez	.
4D\ 4A	8ryy	4c/ 4f	8ryy	.	4f/	łą-	.
.	4ryy	.	4ryy	.	.	.	.
8E-X\ 8A	.	8c/ 8f	.	.	8f/	-ki,	.
*v	*v	*	*	*	*	*	*
!!LO:LB:g=original
=5	=5	=5	=5	=5	=5	=5
4D\ 4B-	8f/L	4d\	.	8f/	nad	.
.	8g/	.	.	8g/	kwie-	.
8F\ 8A	8a/J	8d\	.	8a/	-ciem	.
4GG/ 4G	4f/ 4b-	8ryy	.	4b-/	się	.
.	.	4ryy	.	.	.	.
!LO:N:vis=4C\ 4G	!	!	!	!	!	!
8C\ 8G	8e/ 8g	.	.	8g/	po-	.
=6	=6	=6	=6	=6	=6	=6
4.FF/ 4.F	4.a/	(4e\	.	4.a/	-chy-	.
.	.	8d\)	.	.	.	.
4.EE/ 4.E	8c#X/L 8g 8a	8ryy	<	8a/	-la,	.
.	8d/ 8g 8bn	4ryy	.	8r	.	.
.	8e/J 8g 8cc#X	.	[[	8a/	i	.
=7	=7	=7	=7	=7	=7	=7
8DD^>/ 8D	8f^>/ 8a 8dd	4ryy	p	4ff^\	zbie-	.
8r	8r	.	.	.	.	.
8DD/ 8D	8f/ 8a 8dd	8ryy	.	8dd\	-ra	.
8EE/ 8E	8.cc#X/L	8g\ 8a	.	(8.cc#X\	ma-	.
8r	.	8r	.	.	.	.
!	!	!	!	!LO:N:acc=#	!	!
.	16bn/K	.	.	16bnX\)	.	.
8EE/ 8E	8cc#/J	8g\ 8a	.	8cc#\	-łe	.
=8	=8	=8	=8	=8	=8	=8
4.FF/ 4.F	8ee/L	4.f\ 4.a	.	8ee\	dzwo-	.
.	8dd/	.	.	8dd\	-necz-	.
.	8a/J	.	.	8a/	-ki	.
!	!	!	!	!	!	!LO:HP:a
((4GG^>/ 4G	(4cc^/	4.d\ 4.f	>	(4cc\	li-	>
8GG#X/)) 8G#X	8b-/)	.	]	8b-\)	-la	]
*	*v	*v	*	*	*	*
!!LO:LB:g=original
=9	=9	=9	=9	=9	=9
*^	*	*	*	*	*
!	!	!	!	!	!	!LO:HP:a
4.AA\ 4.A	4.ryy	(>8d/L 8f 8a	<	8a/	te	<
.	.	8f/ 8dd	.	8dd\	bla-	.
.	.	8g/J 8ee	[	8ee\	-de	[
!	!	!LO:TX:b:i:t=poco rit.	!	!LO:TX:a:i:t=poco rit.	!	!
(<8A/L	4.AA\	4a\ 4ff	.	4ff\	pol-	.
8Bn/	.	.	.	.	.	.
8c#X/J)	.	8g\ 8ee	.	8ee\	-ne	.
=10	=10	=10	=10	=10	=10	=10
*	*	*^	*	*	*	*
((8cn/L	4.D\	4.dd/)	(8f#X\L	.	4.dd\	dzwon-	.
8B-/	.	.	8g\	.	.	.	.
8A/J))	.	.	8a\J)	.	.	.	.
4.GG:/ 4.D: 4.B-:	8ryy	4dd/	(8a\L	.	4dd\	-ki.	.
.	4ryy	.	8g\	.	.	.	.
.	.	8r	8fn\J)	.	8r	.	.
=11	=11	=11	=11	=11	=11	=11	=11
4.AA\ 4.A	4.ryy	8cc#X/L	(8g\L	>	2.r	.	.
.	.	8dd/	8f\	.	.	.	.
.	.	8ee/J	8g\J)	.	.	.	.
(8B-/L	(4.C\	(8gg:/L	4.e:\ 4.ccn:	.	.	.	.
8A/	.	8ff/	.	.	.	.	.
8G/J)	.	8ee/J	.	]	.	.	.
*v	*v	*	*	*	*	*	*
*	*v	*v	*	*	*	*
=12||	=12||	=12||	=12||	=12||	=12||
*M4/4	*M4/4	*	*M4/4	*	*
*met(c)	*met(c)	*	*met(c)	*	*
!	!	!	!LO:TX:a:B:t=Moderato.	!	!
2FF:/) 2C: 2A:	2a\) 2cc 2ff 2aa	pp	4a/	A	.
.	.	.	8.cc\	każ-	.
.	.	.	16cc\	-dy	.
2F\ 2A 2d	2a\ 2dd 2ff	.	4dd\	dzwo-	.
.	.	.	4ff\	-nek	.
=13	=13	=13	=13	=13	=13
2FF/ 2F	2e/ 2a 2ee	.	4ee\	dźwię-	.
.	.	.	8.a/	-czy	.
.	.	.	16a/	i	.
2F\ 2G 2B- 2d	2f/ 2g 2b- 2dd	.	4dd\	dzwo-	.
.	.	.	4b-\	-ni	.
!!LO:PB:g=original
=14	=14	=14	=14	=14	=14
*^	*^	*	*	*	*
2FF/ 2F	2ryy	2e/ 2g 2b- 2cc#X	2ryy	.	4b-\	w lil-	.
.	.	.	.	.	8b-\	-io-	.
.	.	.	.	.	8b-\	-we	.
(4e/	2F\ 2A	(4ee/	2f\ 2a	.	4a/	swe	.
4d/)	.	4dd/)	.	.	4dd\	kie-	.
*v	*v	*	*	*	*	*	*
*	*v	*v	*	*	*	*
=15||	=15||	=15||	=15||	=15||	=15||
*M6/8	*M6/8	*	*M6/8	*	*
*^	*^	*	*	*	*
4E\ 4c	4ryy	4.cc/	(4g\	<	(4cc\	-li-	.
8F\ 8c	8ryy	.	8f\)	[	8b-\)	.	.
8c/L	4.C\	8e/L 8cc	8ryy	>	4g/	-chy	.
8A/	.	8f/ 8dd	4ryy	.	.	.	.
8G/J	.	8g/J 8ee	.	]	8r	.	.
*v	*v	*	*	*	*	*	*
*	*v	*v	*	*	*	*
=16||	=16||	=16||	=16||	=16||	=16||
*M4/4	*M4/4	*	*M4/4	*	*
*met(c)	*met(c)	*	*met(c)	*	*
2FF:/ 2C: 2A:	2a\ 2cc 2ff	pp	4a/	o	.
.	.	.	8.cc\	tem	.
.	.	.	16cc\	co	.
2F\ 2A 2d	2a\ 2dd 2ff	.	4dd\	dzi-	.
.	.	.	4ff\	-siaj	.
=17	=17	=17	=17	=17	=17
2FF/ 2F	2e/ 2a 2ee	.	4ee\	wśród	.
.	.	.	8.a/	no-	.
.	.	.	16a/	-cy	.
2F\ 2G 2B- 2d	2f/ 2g 2b- 2dd	.	4dd\	ci-	.
.	.	.	4b-\	-chej	.
=18	=18	=18	=18	=18	=18
*^	*^	*	*	*	*
2EE/ 2E	2ryy	2d/ 2g#X 2bn 2dd	4ryy	<	4dd\	mó-	.
.	.	.	8ryy	.	8dd\	-wi-	.
.	.	.	8ryy	.	8dd\	-łem	.
!	!	!LO:TX:b:i:t=poco rit.	!	!	!LO:TX:a:i:t=poco rit.	!	!
(4c/	2E\	(4ee/	2g#\	[	4ee\	gwia-	.
4Bn/)	.	4dd/)	.	.	4dd\	-zdom,	.
!!LO:LB:g=original
=19	=19	=19	=19	=19	=19	=19	=19
2EE/ 2E	2ryy	(4cc/	2d\	.	4cc\	mó-	.
.	.	4g#X/)	.	.	8g#X/	-wi-	.
.	.	.	.	.	8g#/	-łem	.
((4Bn/	(2C\ 2E	((4bn/	2c\ 2e	>	(4bn/	o-	.
4A/)	.	4a/)	.	]	4a/)	.	.
*v	*v	*	*	*	*	*	*
*	*v	*v	*	*	*	*
=20||	=20||	=20||	=20||	=20||	=20||
*M6/8	*M6/8	*	*M6/8	*	*
4BBn\)) 4E 4G#X	8Bn/L) 8e 8g#X	.	4g#X/	-niej.	.
.	(8e/	p	.	.	.
8r	8f#X/J	.	8r	.	.
4r	8g#/L	<	4r	.	.
.	8a/	.	.	.	.
8r	8bn/J	[	8r	.	.
=21	=21	=21	=21	=21	=21
2.r	4dd\	>	2.r	.	.
.	8cc\	.	.	.	.
.	4bn\)	]	.	.	.
.	8r	.	.	.	.
=22	=22	=22	=22	=22	=22
*^	*^	*	*	*	*
4r	4ryy	8r	4.ryy	mf	2.r	.	.
.	.	(16a/LL	.	<	.	.	.
.	.	16bn/	.	.	.	.	.
8r	8ryy	16cc#X/	.	.	.	.	.
.	.	16dd/JJ)	.	[	.	.	.
*clefG2	*	*	*	*	*	*	*
(4a^/	4.B-\ 4.d	(4aa^/	4.b-X\ 4.dd	.	.	.	.
8g/)	.	8gg/)	.	.	.	.	.
*v	*v	*	*	*	*	*	*
*	*v	*v	*	*	*	*
=23	=23	=23	=23	=23	=23
[4.A/ [4.e	[4.a\ [4.cc#X [4.ee	>	4r	.	.
.	.	.	8r	.	.
8A/] 8e]	8a\] 8cc#] 8ee]	]	8r	.	.
8r	8r	.	8r	.	.
8r	8r	.	8a/	Kró-	.
*clefF4	*	*	*	*	*
!!LO:LB:g=original
=24	=24	=24	=24	=24	=24
*	*^	*	*	*	*
8D^\ 8A 8d	8f^\ 8a 8ff	4.ryy	p	4ff^\	-lew-	.
8r	8r	.	.	.	.	.
8D\ 8A 8d	8f/ 8a 8dd	.	.	8dd\	-na	.
8E\ 8A 8c#X	8.cc#X/L	8g\ 8a	.	(8.cc#X\	mo-	.
8r	.	8r	.	.	.	.
!	!	!	!	!LO:SIC:v:o=16b-\)	!	!
.	16bn/K	.	.	16bn\)	.	.
8E\ 8A 8c#	8cc#/J	8g\ 8a	.	8cc#\	-ja	.
=25	=25	=25	=25	=25	=25	=25
*^	*	*	*	*	*	*
8e/L	4.F\ 4.A	8ee/L	4.f\ 4.a	.	8ee\	i-	.
8d/	.	8dd/	.	.	8dd\	-dzie	.
8A/J	.	8a/J	.	.	8a/	przez	.
4D/ 4A	8ryy	4c/ 4f	8ryy	.	4f/	łą-	.
.	4ryy	.	4ryy	.	.	.	.
8E-X\ 8A	.	8c/ 8f	.	.	8f/	-ki,	.
*v	*v	*	*	*	*	*	*
=26	=26	=26	=26	=26	=26	=26
4D\ 4A	8f/L	4d\	.	8f/	dzwo-	.
.	8g/	.	.	8g/	-nie-	.
8F\ 8A	8a/J	8d\	.	8a/	-nia	.
4GG/ 4G	4f^/ 4b-	8ryy	.	4b-/	ich	.
.	.	4ryy	.	.	.	.
8C\ 8G	8e/ 8g	.	.	8g/	nie	.
=27	=27	=27	=27	=27	=27	=27
4.FF/ 4.F	4.a/	(4e\	.	4.a/	sły-	.
.	.	8d\)	.	.	.	.
4.EE/ 4.E	8c#X/L 8g 8a	8ryy	<	4a/	-szy,	.
.	8d/ 8g 8bn	4ryy	.	.	.	.
.	8e/J 8g 8cc#X	.	[	8r	.	.
!!LO:LB:g=original
=28	=28	=28	=28	=28	=28	=28
8DD/ 8D	8f/ 8a 8dd	4ryy	.	4ff\	nie	.
8r	8r	.	.	.	.	.
8DD/ 8D	8f/ 8a 8dd	8ryy	.	8dd\	wie	.
8EE/ 8E	8.cc#X/L	8g\ 8a	.	8.cc#X\	com	.
8r	.	8r	.	.	.	.
.	16bn/K	.	.	16bn\	gwiaz-	.
8EE/ 8E	8cc#/J	8g\ 8a	.	8cc#\	-dom	.
=29	=29	=29	=29	=29	=29	=29
*	*	*	*	*^	*	*
4.FF/ 4.F	8ee/L	4.f\ 4.a	.	8ee\	4ryy	rzekł	.
.	8dd/	.	.	8dd\	.	w noc-	.
.	8a/J	.	.	8a/	8ryy	-nej	.
!	!	!	!	!LO:N:vis=8cc/	!LO:N:vis=8cc\	!	!LO:Hp:a
((4GG^>/ 4G	(4cc^/	4.d\ 4.f	.	4cc/	4cc\	ci-	>
8GG#X/)) 8G#X	8b-/)	.	.	8b-/	8b-\	-szy,	]
*	*	*	*	*v	*v	*	*
=30	=30	=30	=30	=30	=30	=30
*^	*	*	*	*	*	*
!	!	!LO:TX:b:i:t=rit. al fine.	!	!	!LO:TX:a:i:t=rit. al fine.	!	!
4.A/	2.AA\	2.a/	(>8d\L 8f	.	8a/	i	.
.	.	.	8e\	.	8a/	tyl-	.
.	.	.	8f\J	.	8a/	-ko	.
(<8Gn/L	.	.	8e\L	.	4a/	zbie-	.
8F/	.	.	8d\	.	.	.	.
8E/J)	.	.	8c#X\J)	.	8a/	-ra	.
*v	*v	*	*	*	*	*	*
=31	=31	=31	=31	=31	=31	=31
*	*	*	*^	*	*	*
!	!	!	!LO:HP:a	!	!	!	!LO:HP:a
2.DD:/ 2.AA: 2.F:	[2.a/	N(<4e\	>	.	4.a/	dzwon-	>
.	.	8d\	.	.	.	.	.
!	!	!	!	!LO:HP:b=2	!	!	!
.	.	8c#X\L	.	>	[4.a/	-ki....	.
.	.	8d\	.	.	.	.	.
.	.	8B-\J	.	.	.	.	.
=32	=32	=32	=32	=32	=32	=32	=32
!	!LO:TX:t=P:problem=mixed beam	!	!	!	!	!	!
4ryy	8a/]	8A\L	]	.	4a/]	.	]
.	8r	8E</	.	.	.	.	.
8ryy	8r	8F</J	.	.	8r	.	.
4D/N)	4r	8ryy	.	]	4r	.	.
.	.	4ryy	.	.	.	.	.
8r	8r	.	.	.	8r	.	.
*	*	*	*v	*v	*	*	*
*	*v	*v	*	*	*	*
*clefG2	*	*	*	*	*
=33	=33	=33	=33	=33	=33
2.d/ 2.a 2.dd	2.ff\ 2.aa 2.ddd	ppp	2.r	.	.
==	==	==	==	==	==
*-	*-	*-	*-	*-	*-
!!!system-decoration: s1{(s2,s3)}
!!!RDF**kern: < = below
!!!RDF**kern: > = above
!!!RDF**kern: N = linked
!!!ENC: Anastazja Marusiak
!!!END: 2023-10-19
!!!EED: Marta Chmielewska
!!!EEV: 2023-11-24
